X: 8828
T: Cuil Aodha, The
R: jig
M: 6/8
K: Gmajor
|:gfd cAd|GGG B2c|dcB cAG|FED cAF|
.G2A GFG|~A2g fga|gfd cAd|1 ~G3 G2(3Bcd:|2 GAF GzB/c/||
|:d2 g gfg|a{b}ag fga|gfd cAd|cAG FGA|
d2g gfg|a{b}ag fga|gfd cAd|1 GAF GzB/c/:|2 GAG G2g||

